src/img/advisory/tokenisation.svg

<svg width="41" height="41" viewBox="0 0 41 41" fill="none" xmlns="http://www.w3.org/2000/svg">
<path d="M34.9957 6.00434C31.1237 2.1324 25.9757 0 20.5 0C17.7493 0 15.0794 0.535883 12.5643 1.59267L13.0324 2.7068C15.214 1.79015 17.5201 1.29118 19.8957 1.21879V4.50512C15.9372 4.65278 12.3421 6.24433 9.62243 8.76775L7.29432 6.4398C8.4074 5.3919 9.65302 4.46772 11.0154 3.69713L10.4202 2.6453C7.3137 4.4027 4.70547 6.95286 2.87769 10.0201C0.995131 13.1791 0 16.803 0 20.5C0 25.9757 2.1324 31.1238 6.00434 34.9957C9.87628 38.8675 15.0242 41 20.5 41C25.9757 41 31.1237 38.8676 34.9957 34.9957C38.8677 31.1237 41 25.9757 41 20.5C41 15.0243 38.8677 9.87628 34.9957 6.00434ZM39.7812 19.8957H36.4949C36.3502 16.018 34.8204 12.4887 32.3859 9.78955L34.7095 7.466C37.7363 10.7633 39.6332 15.1129 39.7812 19.8957ZM21.1043 1.21887C26.0489 1.3719 30.5304 3.39403 33.8648 6.60156L31.5437 8.92271C28.8051 6.30912 25.1435 4.6559 21.1043 4.50512V1.21887ZM6.44068 7.29512L8.76791 9.62235C6.24441 12.3421 4.65286 15.9372 4.5052 19.8957H1.21831C1.36741 15.1531 3.26623 10.6824 6.44068 7.29512ZM1.21887 21.1043H4.50503C4.65574 25.1435 6.30904 28.8051 8.92263 31.5437L6.60156 33.8648C3.39403 30.5304 1.37182 26.0488 1.21887 21.1043ZM19.8957 39.7811C15.1129 39.6332 10.7633 37.7363 7.46608 34.7093L9.78963 32.3858C12.4887 34.8204 16.0181 36.3501 19.8958 36.4948V39.7811H19.8957ZM21.1043 39.7811V36.4952H21.1043C22.9674 36.4265 24.7809 36.0408 26.5031 35.3436L26.0496 34.2234C24.2865 34.937 22.4194 35.2989 20.5001 35.2989C12.3399 35.2989 5.70116 28.6601 5.70116 20.5C5.70116 12.3399 12.3398 5.70108 20.5 5.70108C28.6601 5.70108 35.2989 12.3399 35.2989 20.5C35.2989 25.8762 32.3755 30.8382 27.6696 33.4494L28.2559 34.5061C29.4008 33.8709 30.4477 33.1065 31.3834 32.2379L33.7001 34.5546C30.3836 37.6713 25.9681 39.6307 21.1043 39.7811ZM34.5546 33.7001L32.2377 31.3832C34.8072 28.6086 36.3496 24.9731 36.4956 21.1043H39.7811C39.6307 25.9681 37.6713 30.3836 34.5546 33.7001Z" fill="#19338B"/>
<path d="M21.1423 7.70129H19.8588V8.90975H21.1423V7.70129Z" fill="#19338B"/>
<path d="M21.1423 32.0901H19.8588V33.2986H21.1423V32.0901Z" fill="#19338B"/>
<path d="M8.94759 19.8956H7.66394V21.1041H8.94759V19.8956Z" fill="#19338B"/>
<path d="M12.1565 10.9109H10.8729V12.1194H12.1565V10.9109Z" fill="#19338B"/>
<path d="M30.7692 11.5523H29.4856V12.7608H30.7692V11.5523Z" fill="#19338B"/>
<path d="M30.7692 28.2391H29.4856V29.4475H30.7692V28.2391Z" fill="#19338B"/>
<path d="M11.5147 28.2391H10.2311V29.4475H11.5147V28.2391Z" fill="#19338B"/>
<path d="M33.3359 19.8956H32.0522V21.1041H33.3359V19.8956Z" fill="#19338B"/>
<path d="M13.9685 20.5L20.5 29.2086L27.0315 20.5L20.5 11.7913L13.9685 20.5ZM20.5 27.1945L15.4792 20.5L20.5 13.8054L25.5208 20.5L20.5 27.1945Z" fill="#19338B"/>
</svg>

<svg xmlns="http://www.w3.org/2000/svg" width="41" height="41" fill="none"><path fill="#19338B" d="M35 6c-3.88-3.87-9.02-6-14.5-6-2.75 0-5.42.54-7.94 1.6l.47 1.1a19.14 19.14 0 016.87-1.48V4.5A15.95 15.95 0 009.62 8.77L7.3 6.44a19.26 19.26 0 013.73-2.74l-.6-1.05A20.48 20.48 0 006 35c3.88 3.87 9.02 6 14.5 6s10.62-2.13 14.5-6c3.87-3.88 6-9.02 6-14.5S38.87 9.88 35 6zm4.78 13.9H36.5a15.94 15.94 0 00-4.1-10.11l2.32-2.32a19.22 19.22 0 015.07 12.43zM21.1 1.22c4.95.15 9.43 2.17 12.76 5.38l-2.32 2.32A15.95 15.95 0 0021.1 4.51V1.2zM6.44 7.3l2.33 2.32A15.95 15.95 0 004.5 19.9H1.2A19.34 19.34 0 016.45 7.3zM1.22 21.1H4.5c.15 4.04 1.8 7.7 4.41 10.44L6.6 33.86A19.23 19.23 0 011.22 21.1zM19.9 39.78a19.22 19.22 0 01-12.43-5.07l2.32-2.32a15.94 15.94 0 0010.1 4.1v3.3zm1.2 0V36.5a15.9 15.9 0 005.4-1.16l-.45-1.12A14.82 14.82 0 015.7 20.5c0-8.16 6.64-14.8 14.8-14.8a14.82 14.82 0 017.17 27.75l.59 1.06c1.14-.64 2.19-1.4 3.12-2.27l2.32 2.31a19.22 19.22 0 01-12.6 5.23zm13.45-6.08l-2.31-2.32A16.02 16.02 0 0036.5 21.1h3.28a19.22 19.22 0 01-5.23 12.6z"/><path fill="#19338B" d="M21.14 7.7h-1.28v1.21h1.28v-1.2zM21.14 32.09h-1.28v1.2h1.28v-1.2zM8.95 19.9H7.66v1.2h1.29v-1.2zM12.16 10.91h-1.29v1.2h1.29v-1.2zM30.77 11.55h-1.28v1.21h1.28v-1.2zM30.77 28.24h-1.28v1.2h1.28v-1.2zM11.51 28.24h-1.28v1.2h1.28v-1.2zM33.34 19.9h-1.29v1.2h1.29v-1.2zM13.97 20.5l6.53 8.7 6.53-8.7-6.53-8.7-6.53 8.7zm6.53 6.7l-5.02-6.7 5.02-6.7 5.02 6.7-5.02 6.7z"/></svg>
